images/admitad.svg

<?xml version="1.0" encoding="UTF-8"?>
<svg xmlns="http://www.w3.org/2000/svg" width="130" height="24" viewBox="0 0 130 24" fill="none">
  <path fill-rule="evenodd" clip-rule="evenodd" d="M20.6161 1.11489C21.3633 1.37523 21.8957 2.04009 21.9864 2.82614L23.8382 18.875H28.3333C31.0017 18.875 32.8302 17.9541 33.9978 16.7244C35.1915 15.4672 35.8177 13.7566 35.8177 12C35.8177 10.2435 35.1915 8.53289 33.9978 7.27566C32.8302 6.04599 31.0017 5.12505 28.3333 5.12505H25.4458L24.8958 1.00006H28.3333C32.0295 1.00006 34.9744 2.31348 36.9891 4.43537C38.9777 6.52969 39.9427 9.28786 39.9427 12C39.9427 14.7122 38.9777 17.4704 36.9891 19.5647C34.9744 21.6866 32.0295 23 28.3333 23H22.0007H22C20.9524 23 20.0712 22.2146 19.9511 21.1739L18.3778 7.53902L7.04186 18.875H16.4875L17.0375 23H2.06256C1.22835 23 0.476293 22.4975 0.157058 21.7268C-0.162177 20.9561 0.0142817 20.069 0.604151 19.4791L18.4791 1.60415C19.0386 1.04464 19.8689 0.85455 20.6161 1.11489Z" fill="#8C75E7"></path>
  <path d="M87.0371 8.8584C85.4115 8.8584 84.0052 9.51593 83.1467 10.6301C82.3796 9.42461 81.0645 8.8584 79.4755 8.8584C78.27 8.8584 77.1741 9.22369 76.3339 9.88123V9.02278H73.1924V19.8356H76.3339V13.2602C76.8271 12.2374 77.649 11.5799 78.7084 11.5799C79.9686 11.5799 80.754 12.3835 80.754 14.1369V19.8356H83.8956C83.8956 19.8356 83.8956 13.4063 83.8956 13.2967C84.3887 12.2557 85.2289 11.5799 86.2883 11.5799C87.5485 11.5799 88.3339 12.3835 88.3339 14.1369V19.8356H91.4755V13.6438C91.4572 10.3378 89.6125 8.8584 87.0371 8.8584Z" fill="#1A1A1A"></path>
  <path d="M56.3155 19.8174H59.731L53.4479 5.58911H53.2653H50.2333L43.9502 19.8174H47.3657L48.6808 16.6393H55.0004L56.3155 19.8174ZM49.6853 14.2466L51.8589 9.00463L54.0324 14.2466H49.6853Z" fill="#1A1A1A"></path>
  <path d="M93.576 9.02283H96.7176V19.8356H93.576V9.02283ZM96.9733 5.82648C96.9733 6.83105 96.1514 7.65296 95.1468 7.65296C94.1422 7.65296 93.3203 6.83105 93.3203 5.82648C93.3203 4.82192 94.1422 4 95.1468 4C96.1514 4 96.9733 4.82192 96.9733 5.82648Z" fill="#1A1A1A"></path>
  <path d="M106.179 19.306C105.539 19.7626 104.59 19.9818 103.621 19.9818C101.064 19.9818 99.585 18.685 99.585 16.1096V11.4338H97.9229V9.02287H99.585V6.61191L102.726 5.77173V9.02287H105.411V11.4338H102.726V16.0731C102.726 17.0046 103.238 17.4977 104.078 17.4977C104.535 17.4977 105.01 17.3516 105.338 17.0959L106.179 19.306Z" fill="#1A1A1A"></path>
  <path d="M111.658 8.8584C109.923 8.8584 108.188 9.31502 107.001 10.1735L108.133 12.3652C108.919 11.7442 110.106 11.3607 111.256 11.3607C112.937 11.3607 113.74 12.1461 113.74 13.4977C112.955 13.3698 111.914 13.315 111.256 13.315C107.969 13.315 106.617 14.831 106.617 16.7305C106.617 18.5935 108.115 19.9999 110.654 19.9999C112.097 19.9999 113.083 19.6712 113.74 18.9223V19.8356H113.941H116.882V13.662C116.864 10.3744 114.946 8.8584 111.658 8.8584ZM111.421 17.8812C110.325 17.8812 109.649 17.3515 109.649 16.5662C109.649 15.8356 110.106 15.3059 111.585 15.3059C111.585 15.3059 113.01 15.2328 113.74 15.4885C113.74 15.799 113.74 16.2191 113.74 16.2191C113.375 17.2054 112.462 17.8812 111.421 17.8812Z" fill="#1A1A1A"></path>
  <path d="M67.8776 5.57065V9.80809C67.0192 9.22361 66.0146 8.85832 64.937 8.85832C61.8685 8.85832 59.3662 11.3423 59.3662 14.4291C59.3662 17.5158 61.8502 19.9816 64.937 19.9816C66.0511 19.9816 67.0374 19.598 67.8776 18.9588V19.8172H71.0192V4.73047L67.8776 5.57065ZM62.4895 14.4291C62.4895 11.9816 65.1927 10.5204 67.8594 12.5478V16.3652C65.0648 18.4473 62.4895 16.7487 62.4895 14.4291Z" fill="#1A1A1A"></path>
  <path d="M126.836 5.57065V9.80809C125.977 9.22361 124.973 8.85832 123.895 8.85832C120.826 8.85832 118.324 11.3423 118.324 14.4291C118.324 17.5158 120.808 19.9999 123.895 19.9999C125.009 19.9999 125.995 19.6163 126.836 18.977V19.8355H129.977V4.73047L126.836 5.57065ZM121.447 14.4291C121.447 11.9816 124.151 10.5204 126.817 12.5478V16.3652C124.023 18.4473 121.447 16.7487 121.447 14.4291Z" fill="#1A1A1A"></path>
</svg>

<svg xmlns="http://www.w3.org/2000/svg" width="130" height="24" fill="none"><path fill="#8C75E7" fill-rule="evenodd" d="M20.62 1.11a2.1 2.1 0 0 1 1.37 1.72l1.85 16.05h4.5c2.66 0 4.49-.93 5.66-2.16A6.85 6.85 0 0 0 35.82 12c0-1.76-.63-3.47-1.82-4.72-1.17-1.23-3-2.15-5.67-2.15h-2.88L24.9 1h3.43c3.7 0 6.64 1.31 8.66 3.44A10.97 10.97 0 0 1 39.94 12c0 2.71-.96 5.47-2.95 7.56C34.97 21.7 32.03 23 28.33 23H22a2.06 2.06 0 0 1-2.05-1.83L18.38 7.54 7.04 18.88h9.45l.55 4.12H2.06A2.06 2.06 0 0 1 .6 19.48L18.48 1.6a2.06 2.06 0 0 1 2.14-.49Z" clip-rule="evenodd"/><path fill="#1A1A1A" d="M87.04 8.86c-1.63 0-3.03.66-3.9 1.77-.76-1.2-2.08-1.77-3.66-1.77-1.21 0-2.3.36-3.15 1.02v-.86H73.2v10.82h3.14v-6.58c.5-1.02 1.32-1.68 2.38-1.68 1.26 0 2.04.8 2.04 2.56v5.7h3.15V13.3c.49-1.04 1.33-1.72 2.39-1.72 1.26 0 2.04.8 2.04 2.56v5.7h3.15v-6.2c-.02-3.3-1.87-4.78-4.44-4.78ZM56.32 19.82h3.41L53.45 5.59h-3.22l-6.28 14.23h3.42l1.31-3.18H55l1.32 3.18Zm-6.63-5.57L51.86 9l2.17 5.25H49.7Zm43.89-5.23h3.14v10.82h-3.14V9.02Zm3.4-3.2a1.83 1.83 0 0 1-3.65 0c-.01-1 .81-1.82 1.82-1.82 1 0 1.82.82 1.82 1.83Zm9.2 13.48a4.5 4.5 0 0 1-2.56.68c-2.56 0-4.04-1.3-4.04-3.87v-4.68h-1.66v-2.4h1.66V6.6l3.15-.84v3.25h2.68v2.41h-2.68v4.64c0 .93.5 1.43 1.35 1.43.45 0 .93-.15 1.26-.4l.84 2.2Zm5.48-10.44c-1.74 0-3.47.46-4.66 1.31l1.13 2.2a5.2 5.2 0 0 1 3.13-1c1.68 0 2.48.78 2.48 2.13-.78-.13-1.83-.19-2.48-.19-3.3 0-4.64 1.52-4.64 3.42 0 1.86 1.5 3.27 4.03 3.27 1.45 0 2.43-.33 3.09-1.08v.92h3.14v-6.18c-.02-3.29-1.93-4.8-5.22-4.8Zm-.24 9.02c-1.1 0-1.77-.53-1.77-1.31 0-.73.46-1.26 1.93-1.26 0 0 1.43-.08 2.16.18v.73a2.5 2.5 0 0 1-2.32 1.66ZM67.88 5.57v4.24a5.22 5.22 0 0 0-2.94-.95 5.57 5.57 0 1 0 0 11.12c1.11 0 2.1-.38 2.94-1.02v.86h3.14V4.73l-3.14.84Zm-5.39 8.86c0-2.45 2.7-3.91 5.37-1.88v3.82c-2.8 2.08-5.37.38-5.37-1.94Zm64.35-8.86v4.24a5.22 5.22 0 0 0-2.95-.95 5.57 5.57 0 1 0 0 11.14c1.12 0 2.1-.38 2.95-1.02v.86h3.14V4.73l-3.14.84Zm-5.4 8.86c0-2.45 2.71-3.91 5.38-1.88v3.82c-2.8 2.08-5.37.38-5.37-1.94Z"/></svg>
